X:212
T:Sporting Paddy
R:Reel
C:Trad
M:4/4
L:1/8
K:G
|:EAAB GABG | EAAB G2 ED | EA A2 GABd | edge dBAG |
| EAAB GABG | EAAB G2 ED| EA A2 GABd | edge d2 ef|
| ge ~e2 gede | ge eg a2 ba | ge e2 ge d2 | efge d2 ef |
| ge ~e2 gede| ge eg a2 ga | bgab gabg | efge dBAG :|



